assets/illustrations/no_connection_3.svg

<svg fill="none" height="280" viewBox="0 0 280 280" width="280" xmlns="http://www.w3.org/2000/svg">
    <path
        d="m46.3261 209.322c7.406 18.073 19.4814 21.836 27.972 18.073 16.4202-7.275 59.0739-15.403 102.8809 3.704 58.02 25.307 70.365-12.874 51.848-51.495s-24.794-77.678-3.447-99.1956c21.347-21.5178-6.588-55.179-56.196-20.1399-32.059 22.6436-55.586 17.6013-68.22 11.2-11.9075-6.0331-25.1498-12.3402-37.5565-7.4157-15.0546 5.9758-20.986 18.9318 1.918 47.8752 32.4583 41.015-35.802 56.884-19.1994 97.394z"
        fill="#dee9ff" />
    <path
        d="m214.055 84.5613c-.198.2497-.419.4794-.661.686l-17.305 14.9767-12.917 39.232-36.009 26.313s-6.135 5.14-11.736 5.617c-1.254.438-5.052 1.916-7.156 4.2-.678.736-5.997 16.445-14.247 38.66-.413 1.112-1.226 2.029-2.281 2.572-1.054.542-2.274.671-3.418.361-10.3096-2.798-33.4006-8.959-44.387-13.121-.677-.256-1.2811-.674-1.7594-1.217-.4782-.543-.8161-1.196-.9841-1.9s-.1609-1.438.0206-2.139c.1814-.7.5318-1.346 1.0204-1.88 12.6243-13.799 39.1665-45.384 39.1665-45.384l1.8-3.74s11.339-35.427 15.048-37.73c1.402-1.523 9.47-13.3327 12.644-21.5714.722-1.199 4.068-6.1891 6.871-10.4976 1.986-3.08 3.71-5.82 4.004-6.6026.063-.1793.169-.3406.308-.4698 0 0-.008-.0025.003-.009 1.337-1.397 5.775-1.0815 5.99 4.2223.241 5.8506-5.02 17.9875-6.079 18.3181-.536 1.2908-2.058 8.243-5.036 14.129-.257.89-.64 3.188 1.872 2.631 2.514-.567 60.669-27.9637 60.669-27.9637l7.213-4.531c1.062-.6875 2.326-.9956 3.586-.8743 1.492.1716 2.859.9146 3.815 2.073 2.058 2.3848.714 4.6759-.055 5.6393z"
        fill="#699cff" />
    <path
        d="m140.705 78.9615c-1.039.0955-2.1-.4029-2.94-.9632 1.986-3.08 3.71-5.82 4.004-6.6026.063-.1793.169-.3406.309-.4698 2.393 2.8581-1.086 7.7424-1.373 8.0356z"
        fill="#d4e5ff" />
    <path
        d="m200.134 72.6463-42.617-12.2835c-2.971-.8566-6.075.8581-6.931 3.8299l-25.788 89.4663c-.857 2.971.858 6.075 3.83 6.932l42.616 12.283c2.972.857 6.075-.858 6.932-3.83l25.787-89.4658c.857-2.9718-.858-6.0753-3.829-6.9319z"
        fill="#0e84e5" />
    <path
        d="m197.893 74.887-39.672-11.4351c-2.229-.6424-4.556.6436-5.199 2.8725l-25.027 86.8266c-.642 2.229.644 4.557 2.873 5.199l39.672 11.435c2.229.642 4.557-.644 5.199-2.872l25.027-86.8271c.642-2.2289-.644-4.5565-2.873-5.1989z"
        fill="#d4e5ff" />
    <path
        d="m199.924 104.157-7.153-.057c-3.538-.027-6.428 2.818-6.456 6.356s2.817 6.428 6.355 6.456l7.153.057c3.537.028 6.428-2.818 6.456-6.356s-2.818-6.428-6.355-6.456z"
        fill="#699cff" />
    <path
        d="m197.444 117.398-9.056-.071c-2.869-.023-5.213 2.284-5.236 5.153s2.285 5.213 5.154 5.236l9.056.071c2.869.023 5.213-2.284 5.235-5.153.023-2.869-2.285-5.213-5.153-5.236z"
        fill="#699cff" />
    <path
        d="m191.405 128.765-5.351-.042c-2.169-.017-3.94 1.727-3.957 3.896-.018 2.168 1.727 3.94 3.895 3.957l5.351.042c2.168.017 3.94-1.727 3.957-3.895.017-2.169-1.727-3.94-3.895-3.958z"
        fill="#699cff" />
    <path
        d="m188.256 130.186-3.126-.024c-.541-.004-.983.431-.988.972l-.022 2.797c-.004.541.431.983.972.988l3.127.024c.541.004.983-.431.987-.972l.022-2.797c.005-.541-.431-.983-.972-.988z"
        fill="#d4e5ff" />
    <path
        d="m191.426 119.792-3.502-.028c-1.16-.009-2.108.924-2.117 2.084l-.013 1.694c-.009 1.159.924 2.107 2.083 2.116l3.503.028c1.159.009 2.107-.924 2.116-2.084l.014-1.694c.009-1.159-.924-2.107-2.084-2.116z"
        fill="#d4e5ff" />
    <path
        d="m195.913 106.356-2.828-.023c-1.547-.012-2.81 1.232-2.822 2.778l-.018 2.224c-.012 1.546 1.232 2.81 2.778 2.822l2.828.022c1.546.013 2.81-1.231 2.822-2.777l.018-2.224c.012-1.547-1.232-2.81-2.778-2.822z"
        fill="#d4e5ff" />
    <g fill="#699cff">
        <path
            d="m90.289 133.069c-.2017.623-.2142 1.291-.0358 1.921.1783.63.5394 1.193 1.0377 1.618.4982.424 1.1112.692 1.7615.768.6502.077 1.3085-.042 1.8915-.339.5831-.298 1.0648-.762 1.3841-1.334.3194-.571.4621-1.225.4101-1.877-.052-.653-.2963-1.276-.7021-1.789-.4058-.514-.9548-.896-1.5777-1.098-.8352-.27-1.7437-.198-2.5256.202-.7818.399-1.3731 1.092-1.6437 1.928z" />
        <path
            d="m88.7931 124.993c-1.1964.607-2.2606 1.445-3.1308 2.466-.8701 1.021-1.5291 2.205-1.9386 3.482-.1583.489-.116 1.021.1177 1.478.2337.458.6396.804 1.1285.962.4888.159 1.0205.116 1.4781-.117.4576-.234.8036-.64.9619-1.129.2563-.791.666-1.525 1.2058-2.158.5397-.633 1.199-1.154 1.94-1.533.741-.378 1.5494-.607 2.3788-.673.8295-.066 1.6638.032 2.4554.289.4888.158 1.0205.116 1.4781-.118s.8036-.64.962-1.128c.1583-.489.1159-1.021-.1177-1.479-.2337-.457-.6397-.803-1.1285-.962-1.275-.417-2.6201-.577-3.9574-.47-1.3373.106-2.6402.477-3.8333 1.09z" />
        <path
            d="m85.8914 119.311c-1.9441.986-3.6732 2.348-5.0873 4.007s-2.485 3.582-3.1509 5.658c-.0798.242-.1109.498-.0916.752.0193.255.0888.503.2043.731.1155.227.2748.43.4688.596.194.165.4189.291.6617.37.2428.078.4987.108.7531.088.2543-.021.5021-.091.7291-.208s.4288-.277.5936-.472c.1649-.195.2896-.42.3671-.663.5144-1.589 1.3368-3.061 2.4201-4.332s2.4064-2.316 3.8936-3.075c1.4873-.76 3.1096-1.219 4.7743-1.352 1.6647-.132 3.3393.064 4.928.579.4888.158 1.0205.116 1.4781-.118.4575-.233.8036-.639.9619-1.128s.1159-1.021-.1178-1.478c-.2337-.458-.6396-.804-1.1285-.962-2.0716-.678-4.257-.937-6.4297-.764s-4.2895.775-6.2279 1.771z" />
        <path
            d="m100.52 112.221c-2.8715-.93-5.8982-1.286-8.9073-1.046-3.009.239-5.9414 1.069-8.6297 2.442s-5.0797 3.262-7.0379 5.559c-1.9581 2.298-3.4446 4.958-4.3744 7.83-.0784.242-.1083.497-.0881.751.0202.253.0901.5.2058.727s.275.428.4686.593.4178.291.6598.369c.2421.078.4972.108.7508.088s.5008-.09.7274-.206c.2265-.115.4281-.275.5932-.468.165-.194.2903-.418.3687-.66.773-2.388 2.0089-4.6 3.6369-6.51s3.6163-3.48 5.8514-4.622c2.2351-1.141 4.6731-1.831 7.1749-2.03s5.0182.096 7.4057.87c.4889.158 1.0212.116 1.4782-.118.458-.234.804-.64.962-1.128.159-.489.116-1.021-.117-1.479-.234-.458-.64-.804-1.129-.962z" />
    </g>
    <path
        d="m224.38 41.8482c-4.545-2.7756-8.277-1.3564-9.388.462-.802 1.3134-.061 2.5979.848 3.1531 1.818 1.1102 2.661-1.9349 6.095.1623 1.684 1.028 2.578 2.5914 1.632 4.1402-1.111 1.8183-3.633 1.7108-5.32 1.9751-1.491.2457-3.613.845-5.381 3.7408-1.07 1.751-.907 2.5438.473 3.3869 1.65 1.0073 2.439.4722 2.83-.168 1.069-1.751 1.72-2.7407 4.456-3.0578 1.341-.1519 5.601-.6942 7.534-3.8593 1.933-3.1652.531-7.3036-3.779-9.9353z"
        fill="#0e84e5" />
    <path
        d="m211.954 61.2122c-.34-.2079-.719-.3468-1.113-.4086s-.796-.0453-1.184.0484c-.388.0938-.754.263-1.076.498s-.595.5312-.803.8717-.347.7186-.409 1.1128c-.062.3941-.045.7966.048 1.1844.094.3878.263.7533.498 1.0757s.532.5954.872.8033c.688.42 1.514.5496 2.297.3602.784-.1893 1.46-.682 1.88-1.3696.419-.6877.549-1.514.36-2.2972-.19-.7832-.682-1.4591-1.37-1.8791z"
        fill="#0e84e5" />
</svg>

<svg fill="none" height="280" viewBox="0 0 280 280" width="280" xmlns="http://www.w3.org/2000/svg">
    <path
        d="M46.3261 209.322C53.7321 227.395 65.8075 231.158 74.2981 227.395C90.7183 220.12 133.372 211.992 177.179 231.099C235.199 256.406 247.544 218.225 229.027 179.604C210.51 140.983 204.233 101.926 225.58 80.4084C246.927 58.8906 218.992 25.2294 169.384 60.2685C137.325 82.9121 113.798 77.8698 101.164 71.4685C89.2565 65.4354 76.0142 59.1283 63.6075 64.0528C48.5529 70.0286 42.6215 82.9846 65.5255 111.928C97.9838 152.943 29.7235 168.812 46.3261 209.322Z"
        fill="#DEE9FF" />
    <path
        d="M214.055 84.5613C213.857 84.811 213.636 85.0407 213.394 85.2473L196.089 100.224L183.172 139.456L147.163 165.769C147.163 165.769 141.028 170.909 135.427 171.386C134.173 171.824 130.375 173.302 128.271 175.586C127.593 176.322 122.274 192.031 114.024 214.246C113.611 215.358 112.798 216.275 111.743 216.818C110.689 217.36 109.469 217.489 108.325 217.179C98.0154 214.381 74.9244 208.22 63.938 204.058C63.261 203.802 62.6569 203.384 62.1786 202.841C61.7004 202.298 61.3625 201.645 61.1945 200.941C61.0265 200.237 61.0336 199.503 61.2151 198.802C61.3965 198.102 61.7469 197.456 62.2355 196.922C74.8598 183.123 101.402 151.538 101.402 151.538L103.202 147.798C103.202 147.798 114.541 112.371 118.25 110.068C119.652 108.545 127.72 96.7353 130.894 88.4966C131.616 87.2976 134.962 82.3075 137.765 77.999C139.751 74.919 141.475 72.179 141.769 71.3964C141.832 71.2171 141.938 71.0558 142.077 70.9266C142.077 70.9266 142.069 70.9241 142.08 70.9176C143.417 69.5206 147.855 69.8361 148.07 75.1399C148.311 80.9905 143.05 93.1274 141.991 93.458C141.455 94.7488 139.933 101.701 136.955 107.587C136.698 108.477 136.315 110.775 138.827 110.218C141.341 109.651 199.496 82.2543 199.496 82.2543L206.709 77.7233C207.771 77.0358 209.035 76.7277 210.295 76.849C211.787 77.0206 213.154 77.7636 214.11 78.922C216.168 81.3068 214.824 83.5979 214.055 84.5613Z"
        fill="#699CFF" />
    <path
        d="M140.705 78.9615C139.666 79.057 138.605 78.5586 137.765 77.9983C139.751 74.9183 141.475 72.1783 141.769 71.3957C141.832 71.2164 141.938 71.0551 142.078 70.9259C144.471 73.784 140.992 78.6683 140.705 78.9615Z"
        fill="#D4E5FF" />
    <path
        d="M200.134 72.6463L157.517 60.3628C154.546 59.5062 151.442 61.2209 150.586 64.1927L124.798 153.659C123.941 156.63 125.656 159.734 128.628 160.591L171.244 172.874C174.216 173.731 177.319 172.016 178.176 169.044L203.963 79.5782C204.82 76.6064 203.105 73.5029 200.134 72.6463Z"
        fill="#0E84E5" />
    <path
        d="M197.893 74.887L158.221 63.4519C155.992 62.8095 153.665 64.0955 153.022 66.3244L127.995 153.151C127.353 155.38 128.639 157.708 130.868 158.35L170.54 169.785C172.769 170.427 175.097 169.141 175.739 166.913L200.766 80.0859C201.408 77.857 200.122 75.5294 197.893 74.887Z"
        fill="#D4E5FF" />
    <path
        d="M199.924 104.157L192.771 104.1C189.233 104.073 186.343 106.918 186.315 110.456C186.287 113.994 189.132 116.884 192.67 116.912L199.823 116.969C203.36 116.997 206.251 114.151 206.279 110.613C206.307 107.075 203.461 104.185 199.924 104.157Z"
        fill="#699CFF" />
    <path
        d="M197.444 117.398L188.388 117.327C185.519 117.304 183.175 119.611 183.152 122.48C183.129 125.349 185.437 127.693 188.306 127.716L197.362 127.787C200.231 127.81 202.575 125.503 202.597 122.634C202.62 119.765 200.312 117.421 197.444 117.398Z"
        fill="#699CFF" />
    <path
        d="M191.405 128.765L186.054 128.723C183.885 128.706 182.114 130.45 182.097 132.619C182.079 134.787 183.824 136.559 185.992 136.576L191.343 136.618C193.511 136.635 195.283 134.891 195.3 132.723C195.317 130.554 193.573 128.783 191.405 128.765Z"
        fill="#699CFF" />
    <path
        d="M188.256 130.186L185.13 130.162C184.589 130.158 184.147 130.593 184.142 131.134L184.12 133.931C184.116 134.472 184.551 134.914 185.092 134.919L188.219 134.943C188.76 134.947 189.202 134.512 189.206 133.971L189.228 131.174C189.233 130.633 188.797 130.191 188.256 130.186Z"
        fill="#D4E5FF" />
    <path
        d="M191.426 119.792L187.924 119.764C186.764 119.755 185.816 120.688 185.807 121.848L185.794 123.542C185.785 124.701 186.718 125.649 187.877 125.658L191.38 125.686C192.539 125.695 193.487 124.762 193.496 123.602L193.51 121.908C193.519 120.749 192.586 119.801 191.426 119.792Z"
        fill="#D4E5FF" />
    <path
        d="M195.913 106.356L193.085 106.333C191.538 106.321 190.275 107.565 190.263 109.111L190.245 111.335C190.233 112.881 191.477 114.145 193.023 114.157L195.851 114.179C197.397 114.192 198.661 112.948 198.673 111.402L198.691 109.178C198.703 107.631 197.459 106.368 195.913 106.356Z"
        fill="#D4E5FF" />
    <path
        d="M90.289 133.069C90.0873 133.692 90.0748 134.36 90.2532 134.99C90.4315 135.62 90.7926 136.183 91.2909 136.608C91.7891 137.032 92.4021 137.3 93.0524 137.376C93.7026 137.453 94.3609 137.334 94.9439 137.037C95.527 136.739 96.0087 136.275 96.328 135.703C96.6474 135.132 96.7901 134.478 96.7381 133.826C96.6861 133.173 96.4418 132.55 96.036 132.037C95.6302 131.523 95.0812 131.141 94.4583 130.939C93.6231 130.669 92.7146 130.741 91.9327 131.141C91.1509 131.54 90.5596 132.233 90.289 133.069Z"
        fill="#699CFF" />
    <path
        d="M88.7931 124.993C87.5967 125.6 86.5325 126.438 85.6623 127.459C84.7922 128.48 84.1332 129.664 83.7237 130.941C83.5654 131.43 83.6077 131.962 83.8414 132.419C84.0751 132.877 84.481 133.223 84.9699 133.381C85.4587 133.54 85.9904 133.497 86.448 133.264C86.9056 133.03 87.2516 132.624 87.4099 132.135C87.6662 131.344 88.0759 130.61 88.6157 129.977C89.1554 129.344 89.8147 128.823 90.5557 128.444C91.2967 128.066 92.1051 127.837 92.9345 127.771C93.764 127.705 94.5983 127.803 95.3899 128.06C95.8787 128.218 96.4104 128.176 96.868 127.942C97.3256 127.708 97.6716 127.302 97.83 126.814C97.9883 126.325 97.9459 125.793 97.7123 125.335C97.4786 124.878 97.0726 124.532 96.5838 124.373C95.3088 123.956 93.9637 123.796 92.6264 123.903C91.2891 124.009 89.9862 124.38 88.7931 124.993Z"
        fill="#699CFF" />
    <path
        d="M85.8914 119.311C83.9473 120.297 82.2182 121.659 80.8041 123.318C79.39 124.977 78.3191 126.9 77.6532 128.976C77.5734 129.218 77.5423 129.474 77.5616 129.728C77.5809 129.983 77.6504 130.231 77.7659 130.459C77.8814 130.686 78.0407 130.889 78.2347 131.055C78.4287 131.22 78.6536 131.346 78.8964 131.425C79.1392 131.503 79.3951 131.533 79.6495 131.513C79.9038 131.492 80.1516 131.422 80.3786 131.305C80.6056 131.188 80.8074 131.028 80.9722 130.833C81.1371 130.638 81.2618 130.413 81.3393 130.17C81.8537 128.581 82.6761 127.109 83.7594 125.838C84.8427 124.567 86.1658 123.522 87.653 122.763C89.1403 122.003 90.7626 121.544 92.4273 121.411C94.092 121.279 95.7666 121.475 97.3553 121.99C97.8441 122.148 98.3758 122.106 98.8334 121.872C99.2909 121.639 99.637 121.233 99.7953 120.744C99.9536 120.255 99.9112 119.723 99.6775 119.266C99.4438 118.808 99.0379 118.462 98.549 118.304C96.4774 117.626 94.292 117.367 92.1193 117.54C89.9466 117.713 87.8298 118.315 85.8914 119.311Z"
        fill="#699CFF" />
    <path
        d="M100.52 112.221C97.6485 111.291 94.6218 110.935 91.6127 111.175C88.6037 111.414 85.6713 112.244 82.983 113.617C80.2947 114.99 77.9033 116.879 75.9451 119.176C73.987 121.474 72.5005 124.134 71.5707 127.006C71.4923 127.248 71.4624 127.503 71.4826 127.757C71.5028 128.01 71.5727 128.257 71.6884 128.484C71.8041 128.711 71.9634 128.912 72.157 129.077C72.3506 129.242 72.5748 129.368 72.8168 129.446C73.0589 129.524 73.314 129.554 73.5676 129.534C73.8212 129.514 74.0684 129.444 74.295 129.328C74.5215 129.213 74.7231 129.053 74.8882 128.86C75.0532 128.666 75.1785 128.442 75.2569 128.2C76.0299 125.812 77.2658 123.6 78.8938 121.69C80.5218 119.78 82.5101 118.21 84.7452 117.068C86.9803 115.927 89.4183 115.237 91.9201 115.038C94.4219 114.839 96.9383 115.134 99.3258 115.908C99.8147 116.066 100.347 116.024 100.804 115.79C101.262 115.556 101.608 115.15 101.766 114.662C101.925 114.173 101.882 113.641 101.649 113.183C101.415 112.725 101.009 112.379 100.52 112.221Z"
        fill="#699CFF" />
    <path
        d="M224.38 41.8482C219.835 39.0726 216.103 40.4918 214.992 42.3102C214.19 43.6236 214.931 44.9081 215.84 45.4633C217.658 46.5735 218.501 43.5284 221.935 45.6256C223.619 46.6536 224.513 48.217 223.567 49.7658C222.456 51.5841 219.934 51.4766 218.247 51.7409C216.756 51.9866 214.634 52.5859 212.866 55.4817C211.796 57.2327 211.959 58.0255 213.339 58.8686C214.989 59.8759 215.778 59.3408 216.169 58.7006C217.238 56.9496 217.889 55.9599 220.625 55.6428C221.966 55.4909 226.226 54.9486 228.159 51.7835C230.092 48.6183 228.69 44.4799 224.38 41.8482Z"
        fill="#0E84E5" />
    <path
        d="M211.954 61.2122C211.614 61.0043 211.235 60.8654 210.841 60.8036C210.447 60.7418 210.045 60.7583 209.657 60.852C209.269 60.9458 208.903 61.115 208.581 61.35C208.259 61.585 207.986 61.8812 207.778 62.2217C207.57 62.5622 207.431 62.9403 207.369 63.3345C207.307 63.7286 207.324 64.1311 207.417 64.5189C207.511 64.9067 207.68 65.2722 207.915 65.5946C208.15 65.917 208.447 66.19 208.787 66.3979C209.475 66.8179 210.301 66.9475 211.084 66.7581C211.868 66.5688 212.544 66.0761 212.964 65.3885C213.383 64.7008 213.513 63.8745 213.324 63.0913C213.134 62.3081 212.642 61.6322 211.954 61.2122Z"
        fill="#0E84E5" />
</svg>
